frontend/public/svg/interface/magic-wand.svg

<svg width="136" height="145" viewBox="0 0 136 145" fill="none" xmlns="http://www.w3.org/2000/svg">
<g clip-path="url(#clip0)">
<path d="M118.231 50.9024C117.279 52.5667 116.651 54.117 115.639 55.3521C112.344 59.3745 108.901 63.2733 105.532 67.235C84.7112 91.7167 61.7252 114.113 38.8824 136.645C37.0738 138.43 35.17 140.133 33.198 141.735C32.0826 142.634 30.848 143.374 29.5293 143.933C28.5158 144.408 27.3745 144.536 26.281 144.298C25.1877 144.06 24.2028 143.467 23.4781 142.613C16.7311 135.595 9.99202 128.57 3.26054 121.539C0.951978 119.113 0.707747 117.569 2.73856 114.779C5.85583 110.497 8.95962 106.132 12.6137 102.328C23.2632 91.2376 33.9855 80.2028 45.0497 69.5317C57.0725 57.9362 69.4956 46.7576 81.7819 35.4385C84.3837 33.0434 87.1044 30.7694 89.8561 28.5426C92.2589 26.5961 93.0631 26.7787 95.6921 28.5219C103.336 33.5911 109.427 40.3272 115.606 46.9655C116.611 48.0491 117.278 49.4543 118.231 50.9024ZM27.5423 134.932L90.6641 69.2436L75.6365 52.8243C53.3958 74.1749 30.4374 94.6956 10.0066 118.01L27.5423 134.932ZM97.0763 62.0699L107.684 50.7237C103.186 45.2089 98.0698 40.2313 92.4359 35.8891L81.3666 46.9945C86.8486 52.2553 91.9948 57.1943 97.0763 62.0699Z" fill="black"/>
<path d="M121.962 14.1689C120.463 13.7844 119.184 13.5034 117.933 13.1221C117.395 12.9745 116.922 12.6477 116.593 12.1954C116.263 11.743 116.097 11.1919 116.122 10.6326C116.082 9.31009 116.533 8.16562 117.861 7.74163C119.313 7.2775 120.832 7.01786 122.653 6.59062C122.892 5.59248 123.166 4.44284 123.443 3.2932C123.955 1.1661 124.745 0.380288 126.402 0.351806C128.03 0.323324 128.921 1.12401 129.476 3.20968C129.626 3.93395 129.739 4.66554 129.812 5.4015C130.636 5.47658 131.482 5.5142 132.315 5.63784C134.361 5.94143 135.462 6.96873 135.667 8.69966C135.875 10.4662 135.135 11.7693 133.294 12.6218C132.411 12.9792 131.508 13.2855 130.589 13.539C130.375 14.8706 130.085 16.189 129.721 17.4876C129.04 19.4943 127.783 20.4654 126.196 20.4602C124.522 20.4602 123.026 19.2302 122.463 17.2488C122.237 16.2327 122.069 15.2044 121.962 14.1689Z" fill="black"/>
<path d="M68.1921 23.484C67.8226 27.7712 66.8234 29.2328 64.3926 29.2121C62.1053 29.1927 61.0985 27.7413 60.4713 23.4599C59.379 23.1525 58.2196 22.8508 57.0763 22.4987C56.4803 22.3407 55.9625 21.9699 55.6204 21.4559C55.2784 20.9419 55.1357 20.3202 55.2192 19.7081C55.2348 19.1456 55.4469 18.6063 55.8185 18.1843C56.1901 17.7624 56.6976 17.4845 57.2526 17.3991C58.4102 17.0923 59.6217 16.9906 60.9626 16.7744C61.2249 15.9381 61.544 15.129 61.7275 14.2901C62.0504 12.8239 62.8721 11.895 64.3803 11.7597C65.7472 11.6373 66.6767 12.5701 67.1948 14.4706C67.3104 14.9836 67.3995 15.5021 67.4628 16.0242C68.7786 16.3375 70.0576 16.3964 71.0575 16.9563C71.9133 17.4347 72.9849 18.4834 72.9914 19.2867C72.8641 20.4475 72.2989 21.5157 71.4114 22.2721C70.6576 22.9434 69.4103 23.058 68.1921 23.484Z" fill="black"/>
<path d="M130.412 64.6847C132.397 65.1727 135.104 64.6589 135.564 67.648C135.992 70.427 133.613 70.9623 132.193 71.6387C131.647 73.3723 130.996 75.0702 130.242 76.7235C129.979 77.2277 128.926 77.5087 128.215 77.5507C125.975 77.6802 124.921 76.1551 124.022 71.6239C122.447 70.8743 119.823 71.038 119.86 68.3633C119.897 65.6886 122.241 65.629 124.053 65.3435C124.931 63.5403 124.467 60.9354 127.347 60.8842C128.744 60.859 129.106 61.3387 130.412 64.6847Z" fill="black"/>
</g>
<defs>
<clipPath id="clip0">
<rect width="135" height="145" fill="white" transform="translate(0.777344)"/>
</clipPath>
</defs>
</svg>

<svg xmlns="http://www.w3.org/2000/svg" width="136" height="145" fill="none" viewBox="0 0 136 145"><g fill="#000" clip-path="url(#a)"><path d="M118.231 50.902c-.952 1.665-1.58 3.215-2.592 4.45-3.295 4.023-6.738 7.921-10.107 11.883-20.82 24.482-43.807 46.878-66.65 69.41a79 79 0 0 1-5.684 5.09 15.5 15.5 0 0 1-3.669 2.198 5.1 5.1 0 0 1-6.05-1.32A14074 14074 0 0 1 3.26 121.539c-2.309-2.426-2.553-3.97-.522-6.76 3.117-4.282 6.22-8.647 9.875-12.451 10.65-11.09 21.371-22.125 32.436-32.796 12.023-11.596 24.446-22.774 36.732-34.093 2.602-2.396 5.322-4.67 8.074-6.896 2.403-1.947 3.207-1.764 5.836-.021 7.644 5.07 13.735 11.805 19.914 18.444 1.005 1.083 1.672 2.488 2.625 3.936m-90.689 84.03 63.122-65.688-15.028-16.42c-22.24 21.35-45.199 41.872-65.63 65.186zM97.076 62.07l10.608-11.346a92.7 92.7 0 0 0-15.248-14.835l-11.07 11.106zm24.886-47.901c-1.499-.385-2.778-.666-4.029-1.047a2.464 2.464 0 0 1-1.811-2.49c-.04-1.322.411-2.466 1.739-2.89 1.452-.465 2.971-.724 4.792-1.151.239-.999.513-2.148.79-3.298.512-2.127 1.302-2.913 2.959-2.941 1.628-.029 2.519.772 3.074 2.858q.226 1.087.336 2.192c.824.075 1.67.112 2.503.236 2.046.303 3.147 1.33 3.352 3.062.208 1.766-.532 3.07-2.373 3.922q-1.326.536-2.705.917a36 36 0 0 1-.868 3.949c-.681 2.006-1.938 2.977-3.525 2.972-1.674 0-3.17-1.23-3.733-3.211a27 27 0 0 1-.501-3.08m-53.77 9.315c-.37 4.287-1.369 5.749-3.8 5.728-2.287-.02-3.293-1.47-3.92-5.752-1.093-.308-2.252-.61-3.396-.961a2.527 2.527 0 0 1-1.857-2.79 2.41 2.41 0 0 1 2.034-2.31c1.157-.307 2.369-.408 3.71-.625.262-.836.581-1.645.764-2.484.323-1.466 1.145-2.395 2.653-2.53 1.367-.123 2.297.81 2.815 2.71q.173.771.268 1.554c1.316.313 2.595.372 3.595.932.855.479 1.927 1.527 1.933 2.33a4.58 4.58 0 0 1-1.58 2.986c-.753.671-2 .786-3.219 1.212m62.22 41.201c1.985.488 4.692-.026 5.152 2.963.428 2.779-1.951 3.314-3.371 3.99a44 44 0 0 1-1.951 5.085c-.263.505-1.316.786-2.027.828-2.24.13-3.294-1.396-4.193-5.927-1.575-.75-4.199-.586-4.162-3.26s2.381-2.735 4.193-3.02c.878-1.804.414-4.409 3.294-4.46 1.397-.025 1.759.455 3.065 3.8"/></g><defs><clipPath id="a"><path fill="#fff" d="M.777 0h135v145h-135z"/></clipPath></defs></svg>
